dist/svg/static/send-to-vehicle-small.svg

<svg xmlns="http://www.w3.org/2000/svg" width="24" height="24" viewBox="0 0 24 24"><g fill="none" stroke="currentColor" stroke-miterlimit="10"><path d="M3.5 21c0-2-1.6-3.5-3.5-3.5M8.5 9.5c-1.8-1.3-4-2-6.4-2H0M13.5 21v-2c0-1.6-.3-3.1-.9-4.5M8.5 21v-1c0-4.1-3.4-7.5-7.5-7.5H0M13.5 12.5h-2.6c-.3 0-.4-.9-.4-1.2V7.5l3.2-3h6.5l3.3 3v3.8c0 .3-.2 1.2-.5 1.2h-2.5v-2h-7v2z"/></g></svg>

<?xml version="1.0" encoding="UTF-8" standalone="no"?>
<svg width="24px" height="24px" viewBox="0 0 24 24" version="1.1" xmlns="http://www.w3.org/2000/svg" xmlns:xlink="http://www.w3.org/1999/xlink">
    <!-- Generator: sketchtool 46.2 (44496) - http://www.bohemiancoding.com/sketch -->
    <title>send-to-vehicle-small</title>
    <desc>Created with sketchtool.</desc>
    <defs></defs>
    <g id="icons-published" stroke="none" stroke-width="1" fill="none" fill-rule="evenodd">
        <g id="briefing" transform="translate(-3524.000000, -1562.000000)"></g>
        <g id="send-to-vehicle-small" stroke="#000000">
            <path d="M3.5,21 C3.5,19 1.9,17.5 0,17.5 M8.5,9.5 C6.7,8.2 4.5,7.5 2.1,7.5 L0,7.5 M13.5,21 L13.5,19 C13.5,17.4 13.2,15.9 12.6,14.5 M8.5,21 L8.5,20 C8.5,15.9 5.1,12.5 1,12.5 L0,12.5 M13.5,12.5 L10.9,12.5 C10.6,12.5 10.5,11.6 10.5,11.3 L10.5,7.5 L13.7,4.5 L20.2,4.5 L23.5,7.5 L23.5,11.3 C23.5,11.6 23.3,12.5 23,12.5 L20.5,12.5 L20.5,10.5 L13.5,10.5 L13.5,12.5 Z" id="Shape"></path>
        </g>
    </g>
</svg>
